src/icons/svg/User.svg

<svg width="24" height="24" viewBox="0 0 24 24" fill="none" xmlns="http://www.w3.org/2000/svg">
<g clip-path="url(#clip0)">
<path d="M22.79 17.956C22.157 17.353 16.409 16.049 15.305 15.801C17.898 14.374 19.504 10.915 19.504 7.65701C19.504 3.42801 18.277 0.00100708 12.749 0.00100708C7.22302 0.00100708 5.99402 3.42901 5.99402 7.65701C5.99402 10.927 7.61102 14.397 10.221 15.814C8.95502 16.093 3.37202 17.343 2.72302 17.956C1.55902 19.054 0.972025 21.802 2.13602 23.451C2.13602 23.451 3.55002 24.001 12.795 24.001C22.041 24.001 23.367 23.451 23.367 23.451C24.525 21.803 23.945 19.054 22.789 17.956H22.79ZM21.75 22.5L12.648 22.477C12.648 22.477 3.75302 22.5 3.75002 22.5C2.10602 21.866 2.94002 19.282 4.03702 18.752C4.94002 18.314 9.13402 17.135 10.767 16.682L11.067 15.203V14.573C8.84803 13.504 7.50002 10.455 7.50002 7.68501C7.50002 4.26801 8.37502 1.49601 12.747 1.49601C17.121 1.49601 17.994 4.26801 17.994 7.68501C17.994 10.456 16.65 13.504 14.429 14.573V15.203L14.751 16.778C16.77 17.284 20.907 18.343 21.75 18.752C22.843 19.281 23.191 21.953 21.75 22.5Z" fill="#1C2125"/>
</g>
<defs>
<clipPath id="clip0">
<rect width="24" height="24" fill="white"/>
</clipPath>
</defs>
</svg>

<!-- Generated by IcoMoon.io -->
<svg version="1.1" xmlns="http://www.w3.org/2000/svg" width="24" height="24" viewBox="0 0 24 24">
<title>user</title>
<path fill="#444" d="M22.79 17.956c-0.633-0.603-6.381-1.907-7.485-2.155 2.593-1.427 4.199-4.886 4.199-8.144 0-4.229-1.227-7.656-6.755-7.656-5.526 0-6.755 3.428-6.755 7.656 0 3.27 1.617 6.74 4.227 8.157-1.266 0.279-6.849 1.529-7.498 2.142-1.164 1.098-1.751 3.846-0.587 5.495 0 0 1.414 0.55 10.659 0.55 9.246 0 10.572-0.55 10.572-0.55 1.158-1.648 0.578-4.397-0.578-5.495zM21.75 22.5l-9.102-0.023c0 0-8.895 0.023-8.898 0.023-1.644-0.634-0.81-3.218 0.287-3.748 0.903-0.438 5.097-1.617 6.73-2.070l0.3-1.479v-0.63c-2.219-1.069-3.567-4.118-3.567-6.888 0-3.417 0.875-6.189 5.247-6.189 4.374 0 5.247 2.772 5.247 6.189 0 2.771-1.344 5.819-3.565 6.888v0.63l0.322 1.575c2.019 0.506 6.156 1.565 6.999 1.974 1.093 0.529 1.441 3.201 0 3.748z"></path>
</svg>
